X: 120017
T: The BRIG O' PERTH
Q: "Highland Schottische."
R: Schottische.
%R: shottish
B: James Kerr "Merry Melodies" v.1 p.20 s.0 #17
Z: 2017 John Chambers <jc:trillian.mit.edu>
M: C
L: 1/8
K: A
[|\
vA>vcue>u=g vf>vdue>ud | c>Ac>e a>ec>B |\
A>ce>=g f>de>d | B>=GB>d =g>dB>G |\
A>ce>=g f>de>d |
c>Ac>e a2f>=g |\
a>f=g>e f>de>c | d>B=G>B =g>dB>G |]|\
A>ae>a c>ae>a | c>Ac>e a>ec>B |\
A>ae>a c>ae>a |
B>=GB>d =g>dB>G |\
A>ae>a c>ae>a | c>Ac>e a2f>=g |\
a>f=g>e f>de>c | d>B=G>B =g>dB>G |]

%%sep 1 1 500
%%sep 1 1 500

